build/svg/cmd/sc_overline.svg

<svg xmlns="http://www.w3.org/2000/svg" viewBox="0 0 16 16">/&gt;<path d="M2 1v1h12V1H2zm6 2C5.784 3 4 4.784 4 7v4c0 2.216 1.784 4 4 4s4-1.784 4-4V7c0-2.216-1.784-4-4-4zm-.5 2h1c.831 0 1.5.892 1.5 2v4c0 1.108-.669 2-1.5 2h-1c-.831 0-1.5-.892-1.5-2V7c0-1.108.669-2 1.5-2z" opacity=".6" stroke="#000" stroke-width="2" stroke-linejoin="round"/><path fill="#fff" d="M2 1h12v1H2zM8 3C5.784 3 4 4.784 4 7v4c0 2.216 1.784 4 4 4s4-1.784 4-4V7c0-2.216-1.784-4-4-4zm-.5 2h1c.831 0 1.5.892 1.5 2v4c0 1.108-.669 2-1.5 2h-1c-.831 0-1.5-.892-1.5-2V7c0-1.108.669-2 1.5-2z"/></svg>

<?xml version="1.0" encoding="UTF-8" standalone="no"?>
<svg
   xmlns:dc="http://purl.org/dc/elements/1.1/"
   xmlns:cc="http://creativecommons.org/ns#"
   xmlns:rdf="http://www.w3.org/1999/02/22-rdf-syntax-ns#"
   xmlns:svg="http://www.w3.org/2000/svg"
   xmlns="http://www.w3.org/2000/svg"
   xmlns:sodipodi="http://sodipodi.sourceforge.net/DTD/sodipodi-0.dtd"
   xmlns:inkscape="http://www.inkscape.org/namespaces/inkscape"
   viewBox="0 0 16 16"
   version="1.1"
   id="svg4"
   sodipodi:docname="sc_overline.svg"
   inkscape:version="0.92.5 (2060ec1f9f, 2020-04-08)"
   inkscape:export-filename="/home/jupiter007/Libreoffice yaru theme fullcolor/build/cmd/sc_overline.png"
   inkscape:export-xdpi="96"
   inkscape:export-ydpi="96"><metadata
   id="metadata10">
  <rdf:RDF>
    <cc:Work
       rdf:about="">
      <dc:format>image/svg+xml</dc:format>
      <dc:type
         rdf:resource="http://purl.org/dc/dcmitype/StillImage" />
    </cc:Work>
  </rdf:RDF>
</metadata>
<defs
   id="defs8" />
<sodipodi:namedview
   pagecolor="#ffffff"
   bordercolor="#666666"
   borderopacity="1"
   objecttolerance="10"
   gridtolerance="10"
   guidetolerance="10"
   inkscape:pageopacity="0"
   inkscape:pageshadow="2"
   inkscape:window-width="1920"
   inkscape:window-height="1011"
   id="namedview6"
   showgrid="true"
   inkscape:zoom="29.5"
   inkscape:cx="-4.602458"
   inkscape:cy="8.1609949"
   inkscape:window-x="0"
   inkscape:window-y="32"
   inkscape:window-maximized="1"
   inkscape:current-layer="svg4">
  <inkscape:grid
     type="xygrid"
     id="grid819" />
</sodipodi:namedview>

/&gt;<path
   style="opacity:0.6;fill:#000000;fill-opacity:1;stroke:#000000;stroke-width:2;stroke-linejoin:round;stroke-miterlimit:4;stroke-dasharray:none;stroke-opacity:1"
   d="M 2 1 L 2 2 L 14 2 L 14 1 L 2 1 z M 8 3 C 5.784 3 4 4.784 4 7 L 4 11 C 4 13.216 5.784 15 8 15 C 10.216 15 12 13.216 12 11 L 12 7 C 12 4.784 10.216 3 8 3 z M 7.5 5 L 8.5 5 C 9.331 5 10 5.892 10 7 L 10 11 C 10 12.108 9.331 13 8.5 13 L 7.5 13 C 6.669 13 6 12.108 6 11 L 6 7 C 6 5.892 6.669 5 7.5 5 z "
   id="rect832" />
<rect
   style="opacity:1;fill:#ffffff;fill-opacity:1;stroke:none;stroke-width:1;stroke-linejoin:round;stroke-miterlimit:4;stroke-dasharray:none;stroke-opacity:1"
   id="rect830"
   width="12"
   height="1"
   x="1.9999998"
   y="1" />
<path
   style="opacity:1;fill:#ffffff;fill-opacity:1;stroke:none;stroke-width:1.49811828;stroke-linejoin:round;stroke-miterlimit:4;stroke-dasharray:none;stroke-opacity:1"
   d="M 8 3 C 5.784 3 4 4.784 4 7 L 4 11 C 4 13.216 5.784 15 8 15 C 10.216 15 12 13.216 12 11 L 12 7 C 12 4.784 10.216 3 8 3 z M 7.5 5 L 8.5 5 C 9.331 5 10 5.892 10 7 L 10 11 C 10 12.108 9.331 13 8.5 13 L 7.5 13 C 6.669 13 6 12.108 6 11 L 6 7 C 6 5.892 6.669 5 7.5 5 z "
   id="rect817" />
</svg>
